X:367
T: NACH SEVILLA
N: B0435
O: Europa, Mitteleuropa, Deutschland
R: Liebes - Lied, Liebes - Lust
M: 4/4
L: 1/16
K: D
A,3A, | A,4F,4z4D3D | D4A,4z4
D2C2 | B,6A,2G,4A,2B,2 | B,4A,4z4
A,2D2 | D2C2B,2A,2A,6G,2 | G,4F,4z4
F,2F,2 | B,6=C2B,4A,4 | A,4G,4
E6B,2 | A,6B,2A,6G,2 | G,4F,2z2
D4A,4 | B,4G,4E,4A,4 | F,4z4
A,4D4 | B,4E4D4C4 | D8z4

@@@ Tune index: 2170
